packages/core/src/svgs/ong.svg

<svg width="24" height="24" viewBox="0 0 24 24" fill="none" xmlns="http://www.w3.org/2000/svg">
<g clip-path="url(#clip0_31_15438)">
<path d="M0 0H24V24H0V0Z" fill="#329AFA"/>
<path d="M5.14282 12.6216V5.14307L16.2857 16.9288C15.3358 17.8049 14.1848 18.4334 12.9343 18.7588C12.1757 18.9302 9.91282 19.0459 7.84282 17.5588C5.77282 16.0802 5.14282 13.7145 5.14282 12.6259V12.6216ZM18.8571 11.3788V18.8574L7.71425 7.07164C8.66409 6.19557 9.81516 5.56704 11.0657 5.24164C11.8243 5.07021 14.0871 4.95449 16.1571 6.44164C18.2271 7.92021 18.8571 10.2859 18.8571 11.3745V11.3788Z" fill="white"/>
</g>
<defs>
<clipPath id="clip0_31_15438">
<rect width="24" height="24" fill="white"/>
</clipPath>
</defs>
</svg>

<svg xmlns="http://www.w3.org/2000/svg" width="24" height="24" fill="none" viewBox="0 0 24 24"><g clip-path="url(#a)"><path fill="#329AFA" d="M0 0h24v24H0z"/><path fill="#fff" d="M5.143 12.622V5.143L16.286 16.93a7.86 7.86 0 0 1-3.352 1.83c-.758.171-3.021.287-5.091-1.2-2.07-1.479-2.7-3.845-2.7-4.933zm13.714-1.243v7.478L7.714 7.072a7.86 7.86 0 0 1 3.352-1.83c.758-.172 3.021-.288 5.091 1.2 2.07 1.478 2.7 3.844 2.7 4.932z"/></g><defs><clipPath id="a"><path fill="#fff" d="M0 0h24v24H0z"/></clipPath></defs></svg>
